!!!COM: Beethoven, Ludwig van
!!!CDT: 1770///-1827///
!!!OTL: Piano Sonata no. 8 in C minor
!!!OTP: path&eacute;tique
!!!OPS: 13
!!!OMV: 3
!!!OMD: Rondo: Allegro
**kern	**kern	**dynam
*staff2	*staff1	*staff1/2
*Ipiano	*Ipiano	*Ipiano
*clefF4	*clefG2	*clefG2
*k[b-e-a-]	*k[b-e-a-]	*k[b-e-a-]
*c:	*c:	*c:
*M2/2	*M2/2	*M2/2
*MM208	*MM208	*MM208
8r	8g'\L	p
4r	8cc'\	.
.	8dd'\J	.
=1	=1	=1
(8C\L	(4.ee-\	.
8E-\	.	.
8G\	.	.
8c\J)	8ff\	.
(8C\L	4.dd\	.
8F\	.	.
8G\	.	.
8Bn\J)	8ee-\)	.
=2	=2	=2
8C\L	2cc\	.
8E-\	.	.
8G\	.	.
8c\J	.	.
8e-\L	(8cc\L)	.
8g\	8bn\	.
8e-\	8cc\	.
8d\J	8dd\J	.
=3	=3	=3
8c\L	8ee-\L	.
8g\	8dd\	.
8c\ 8e-\	8ee-\	.
8g\J	8ff\J)	.
8Bn\ 8d\L	4gg'\	.
8g\	.	.
8A-\ 8c\	4gg'\	.
8g\J	.	.
=4	=4	=4
(8G\L	2.gg\	.
8Bn\	.	.
8d\	.	.
8g\J)	.	.
(8G\L	.	.
8B\	.	.
8d\	(8ff\L	.
8g\J)	8gg\J)	.
=5	=5	=5
(8F\L	(2aa-\	.
8A-\	.	.
8Bn\	.	.
8d\J)	.	.
(8F\L	4dd\)	.
8A-\	.	.
8B\	(8ee-\L	.
8d\J)	8ff\J)	.
=6	=6	=6
(8E-\L	(2gg\)	.
8G\	.	.
8c\	.	.
8e-\J)	.	.
(8A-\L	4cc\)	.
8c\	.	.
8e-\	(8cc\L	.
8f#\J)	8dd\J)	.
=7	=7	=7
(8G\L	4ee-'\	.
8c\	.	.
8e-\	(8ee-\L	.
8g\J)	8ff\J)	.
(8G\L	4dd'\	.
8Bn\	.	.
8d\	(8dd\L	.
8g\J)	8ee-\J)	.
=8	=8	=8
8r	4cc'\	.
(8C\L	.	.
8E-\	4r	.
8G\J	.	.
4c\)	4r	.
4r	(8ff\L	.
.	8gg\J)	.
=9	=9	=9
8r	2a-\ (2aa-\	>
(8FF/L	.	.
8BBn/	.	.
8D/J	.	.
8F\L	4dd'\)	.
8A-\	.	.
8G\	(8ee-\L	.
8F\J)	8ff\J)	.
=10	=10	=10
8r	2g\ (2gg\	.
(8EE-/L	.	.
8GG/	.	.
8C/J	.	.
8E-\L	4cc'\)	.
8G\	.	.
8A-\	(8cc\L	.
8F#\J)	8dd\J)	.
=11	=11	=11
8GG\L	4ee-'\	.
8G\	.	.
8c\	(8ee-\L	.
8G\J	8ff\J)	.
8GG\L	4dd'\	.
8G\	.	.
8Bn\	(8dd\L	.
8G\J	8ee-\J)	.
=12	=12	=12
8C\L	4cc\	<
8c\	.	.
8Bn\	2bb-\	.
8c\J	.	.
8En\L	.	.
8c\	.	.
8G\	[4bb-\	.
8c\J	.	.
=13	=13	=13
8F\L	(8bb-\L]	.
8c\	8aa-\	.
8A-\	8gg\	.
8c\J	8ff\J	.
8G\L	8ee-\L	.
8f\	8dd\	.
8Bn\	8cc\	.
8f\J	8bn\J)	.
=14	=14	=14
8A-\L	4cc'\	.
8e-\	.	.
8c\	2cc\ 2ccc\	.
8e-\J	.	.
8G\L	.	.
8en\	.	.
8c\	[4bb-\	.
8e\J	.	.
=15	=15	=15
8F\L	(8bb-\L]	.
8f\	8aa-\	.
8c\	8gg\	.
8f\J	8ff\J	.
8G\L	8ee-\L	.
8g\	8dd\	.
8G\	8cc\	.
8g\J	8bn\J)	.
=16	=16	=16
4c'\	4cc'\	.
4G\ (4Bn\	(4dd\	f
4C'\ 4c'\)	4ee-'\)	.
4GG'\ 4G'\	4bn'\ 4dd'\ 4bbn'\	.
=17	=17	=17
4CC'/ 4C'/	4cc'\ 4ee-'\ 4ccc'\	.
4r	4r	.
2r	2r	.
=18	=18	=18
1BBB- 1BB-	1G 1c 1en	.
=19	=19	=19
4AAA-/ 4AA-/	(8f\L	.
.	8cc\	.
4r	8a-\	.
.	8ff\J	.
2r	8cc\L	.
.	8aa-\	.
.	8ff\	.
.	8ccc\J)	.
=20	=20	=20
4r	(8bb-\L	.
.	8gg\	.
4En\ 4c\	8een\	.
.	8cc\J	.
4E\ 4c\	8b-\L	.
.	8bn\	.
4E\ 4c\	8cc\	.
.	8g\J)	.
=21	=21	=21
[2F\ [2c\	(2b-/	.
4F\] 4c\]	4a-/)	.
4r	4r	.
=22	=22	=22
1AAA- 1AA- 1F	1B- 1d	.
=23	=23	=23
4GGG/ 4GG/	(8e-\L	.
.	8b-\	.
4r	8g\	.
.	8ee-\J	.
2r	8b-\L	.
.	8gg\	.
.	8ee-\	.
.	8bb-\J)	.
=24	=24	=24
4r	(8aa-\L	.
.	8gg\	.
4D\ 4B-\	8ff\	.
.	8ee-\J	.
4D\ 4B-\	8dd\L	.
.	8cc\	.
4D\ 4B-\	8b-\	.
.	8a-\J)	.
=25	=25	=25
8E-\L	4g/	.
8B-\	.	.
8e-\	2b-\	.
8B-\J	.	.
8A-\L	.	.
8B-\	.	.
8d\	[4b-\	.
8B-\J	.	.
=26	=26	=26
8G\L	(8b-\L]	.
8B-\	8cc\	.
8e-\	8dd\	.
8B-\J	8ee-\J	.
8D\L	8ff\L	.
8B-\	8gg\	.
8d\	8aa-\	.
8B-\J	8ff\J)	.
=27	=27	=27
8E-\L	(8aa-\L	.
8B-\	8gg\	.
8e-\	8ff\	.
8B-\J	8ee-\J	.
8A-\L	8ee-\L	.
8B-\	8dd\	.
8f\	8cc\	.
8B-\J	8dd\J)	.
=28	=28	=28
8G\L	(8ff\L	.
8B-\	8ee-\	.
8e-\	8dd\	.
8B-\J	8cc\J)	.
8D\L	4a-/ 4b-/	.
8B-\	.	.
8D\	4a-/ 4b-/	.
8B-\J	.	.
=29	=29	=29
*	*^	*
8E-\L	(1b-	8a-\L	.
8B-\	.	8g\	.
8E-\	.	8f\	.
8B-\J	.	(8e-\J)	.
8A-\L	.	8e-\L	.
8B-\	.	8d\	.
8A-\	.	8c\	.
8B-\J	.	8d\J)	.
*	*v	*v	*
=30	=30	=30
8G-\L	8e-\ (8b-\L	.
8B-\	8cc\	.
8G-\	8dd\	.
8B-\J	8ee-\J	.
8D\L	8ff\L	.
8B-\	8gg-\	.
8D\	8aa-\	.
8B-\J	8ff\J)	.
=31	=31	=31
8E-\L	4gg-\	.
8B-\	.	.
8G-\	2bb-\	<
8B-\J	.	.
8BB-\L	.	.
8B-\	.	.
8D\	[4bb-\	.
8B-\J	.	.
=32	=32	=32
8C-\L	(4bb-\]	.
8B-\	.	.
8E-\	2eee-\	.
8B-\J	.	.
8C-\L	.	.
8An\	.	.
8E-\	4aan\)	.
8A\J	.	.
=33	=33	=33
*	*^	*
4BB-\	[2bb-/	4r	p
4r	.	4B-'\ 4d'\ 4f'\	.
2r	12bb-/L]	2B-\ 2e-\ 2g-\	.
.	12aan/	.	.
.	12bb-/J	.	.
.	12ccc/L	.	.
.	12bb-/	.	.
.	12aa/J	.	.
=34	=34	=34	=34
4r	[2bb-/	4r	.
4r	.	4B-'\ 4d'\ 4f'\	.
2r	12bb-/L]	2B-\ 2e-\ 2g-\	.
.	12aan/	.	.
.	12bb-/J	.	.
.	12ccc/L	.	.
.	12bb-/	.	.
.	12aa/J	.	.
*clefG2	*	*	*
*	*v	*v	*
=35	=35	=35
4B-/ 4d/ 4f/	12r	.
.	(12bb-\L	.
.	12ccc\J	.
4r	12ddd\L	.
.	12ccc\	.
.	12bb-\J)	.
4B-/ 4f/ 4a-/	12r	.
.	(12ddd\L	.
.	12eee-\J	.
4r	12fff\L	.
.	12eee-\	.
.	12ddd\J)	.
=36	=36	=36
4B-/ 4d/ 4f/ 4a-/	(12fff\L	.
.	12eee-\	.
.	12ddd\J	.
4r	12ccc\L	.
.	12bb-\	.
.	12aa-\J	.
2r	12gg\L	.
.	12ff\	.
.	12ee-\J	.
.	16dd\LL	.
.	16cc\	.
.	16b-\	.
.	16a-\JJ)	.
*clefF4	*	*
=37	=37	=37
4E-\	12g/L	.
.	12e-/	.
.	12f/J	.
4r	12g/L	.
.	12f/	.
.	12e-/J	.
12r	2a-/	.
12B-\L	.	.
12c\J	.	.
12d\L	.	.
12c\	.	.
12B-\J	.	.
=38	=38	=38
4e-\	12g\L	.
.	12ee-\	.
.	12ff\J	.
4r	12gg\L	.
.	12ff\	.
.	12ee-\J	.
12r	2aa-\	.
12B-\L	.	.
12c\J	.	.
12d\L	.	.
12c\	.	.
12B-\J	.	.
=39	=39	=39
4e-\	12gg\L	.
.	12ee-\	.
.	12ff\J	.
4r	12gg\L	.
.	12ff\	.
.	12ee-\J	.
4e-\	12bb-\L	.
.	12gg\	.
.	12aa-\J	.
4r	12bb-\L	.
.	12aa-\	.
.	12gg\J	.
=40	=40	=40
4G\ 4B-\ 4d-\ 4e-\	(12ddd-\L	.
.	12ccc\	.
.	12bb-\J	.
4r	12aa-\L	.
.	12gg\	.
.	12ff\J	.
2r	12ee-\L	.
.	12ddn\	.
.	12ee-\J	.
.	12een\L	.
.	12ff\	.
.	12dd-\J)	f
=41	=41	=41
(12AA-\L	4r	.
12C\	.	.
12E-\J	.	.
4A-\)	(12c/L	.
.	12e-/	.
.	12a-/J	.
2r	12cc\L	.
.	12ee-\	.
.	12aa-\J)	.
.	8ccc'\L	.
.	8ccc'\J	.
*clefG2	*	*
=42	=42	=42
4B-/ 4e-/ 4g/	(8ccc\L	.
.	8bb-\)	.
4r	8aa-'\	.
.	8gg'\J	.
4B-/ 4f/ 4a-/	(8gg\L	.
.	8ff\)	.
4r	8ee-'\	.
.	8dd'\J	.
=43	=43	=43
4e-/ 4g/	4ee-\	.
4r	4r	.
2r	4r	.
.	4B-/	p
*clefF4	*	*
=44	=44	=44
4A-'\ (4B-'\	(4d'/ 4f'/	.
4A-'\ 4B-'\	4d'/ 4f'/	.
4A-'\ 4B-'\	4d'/ 4f'/	.
4A-'\ 4B-'\)	4d'/) 4f'/	.
=45	=45	=45
2.G\ 2.B-\	2.e-/ 2.b-/	.
4G\	4e-/ 4b-/	.
=46	=46	=46
2c'\	2e-'/ 2a-'/	.
2c-'\	2e-'/ 2f'/ 2an'/	.
=47	=47	=47
2.B-\	2.d/ 2.f/ 2.b-/	.
4r	4b-/	.
=48	=48	=48
4A-'\ (4d'\	4b-'\ (4ff'\	.
4A-'\ 4d'\	4b-'\ 4ff'\	.
4A-'\ 4d'\	4b-'\ 4ff'\	.
4A-'\ 4d'\)	4b-'\ 4ff'\)	.
=49	=49	=49
*	*^	*
1G 1e-	2.bb-/	(2b-\	.
.	.	2dd-\	.
.	4bbn/	.	.
=50	=50	=50	=50
4A-\ 4e-\	4ccc/	4cc\)	f
4r	4r	4r	.
4BB-\ 4B-\	4f/ 4a-/ 4ddn/	4r	.
4r	4r	4r	.
*clefG2	*	*	*
*	*v	*v	*
=51	=51	=51
12r	4g\ 4ee-\	p
12e-/L	.	.
12f/J	.	.
12g/L	4r	.
12f/	.	.
12e-/J	.	.
2a-/	12r	.
.	12b-\L	.
.	12cc\J	.
.	12dd\L	.
.	12cc\	.
.	12b-\J	.
=52	=52	=52
12g/L	4ee-\	.
12e-/	.	.
12f/J	.	.
12g/L	4r	.
12f/	.	.
12e-/J	.	.
2a-/	12r	.
.	12b-\L	.
.	12cc\J	.
.	12dd\L	.
.	12cc\	.
.	12b-\J	.
=53	=53	=53
4e-/ 4g/	12ee-\L	.
.	12gg\	.
.	12ff\J	.
*clefF4	*	*
4c\	12ee-\L	.
.	12dd\	.
.	12cc\J	.
4A-\	12bn\L	.
.	12cc\	.
.	12b-\J	.
4B-\	12a-/L	.
.	12g/	.
.	12f/J	.
=54	=54	=54
12r	4e-/	.
12EE-/L	.	.
12FF/J	.	.
12GG/L	4r	.
12FF/	.	.
12EE-/J	.	.
2AA-/	12r	.
.	12B-/L	.
.	12c/J	.
.	12d/L	.
.	12c/	.
.	12B-/J	.
=55	=55	=55
12GG/L	4e-/	.
12EE-/	.	.
12FF/J	.	.
12GG/L	4r	.
12FF/	.	.
12EE-/J	.	.
2AA-/	12r	.
.	12B-/L	.
.	12c/J	.
.	12d/L	.
.	12c/	.
.	12B-/J	.
=56	=56	=56
12GG/L	4e-/	.
12EE-/	.	.
12FF/J	.	.
12GG/L	4r	.
12FF/	.	.
12EE-/J	.	.
[2AA-/	12r	.
.	12Bn/L	.
.	12c/J	.
.	12d/L	.
.	12c/	.
.	12B/J	.
=57	=57	=57
1AA-]	12f/L	.
.	12e-/	.
.	12d/J	.
.	12a-/L	.
.	12g/	.
.	12f/J	.
.	12dd\L	.
.	12cc\	.
.	12bn\J	.
.	12ff\L	.
.	12ee-\	.
.	12dd\J	.
=58	=58	=58
[1GGG [1GG	2.fff\	ff
.	12eee-\L	.
.	12ddd\	.
.	12ccc\J	.
=59	=59	=59
1GGG] 1GG]	12bbn\L	.
.	12aa-\	.
.	12gg\J	.
.	12ff\L	.
.	12ee-\	.
.	12dd\J	.
.	12cc\L	.
.	12bn\	.
.	12a-\J	.
.	20g/LL	.
.	20f/	.
.	20e-/	.
.	20d/	.
.	20c/JJ	.
=60	=60	=60
[1GG [1D [1F	[1Bn	.
=61	=61	=61
2GG;/] 2D;/] 2F;/]	2B;/]	.
2r	8r	.
.	8g'\L	p
.	8cc'\	.
.	8dd'\J	.
=62	=62	=62
(8C\L	(4.ee-\	.
8E-\	.	.
8G\	.	.
8c\J)	8ff\	.
(8C\L	4.dd\	.
8F\	.	.
8G\	.	.
8Bn\J)	8ee-\)	.
=63	=63	=63
(8C\L	2cc\	.
8E-\	.	.
8G\	.	.
8c\J)	.	.
*clefG2	*	*
8e-/L	(8cc\L)	.
8g/	8bn\	.
8e-/	8cc\	.
8d/J	8dd\J)	.
=64	=64	=64
8c/L	(8ee-\L	.
8g/	8dd\	.
8c/ 8e-/	8ee-\	.
8g/J	8ff\J)	.
8Bn/ 8d/L	4gg'\	.
8g/	.	.
8A-/ 8c/	4gg'\	.
8g/J	.	.
*clefF4	*	*
=65	=65	=65
(8G\L	2.gg\	.
8Bn\	.	.
8d\	.	.
8g\J)	.	.
(8G\L	.	.
8B\	.	.
8d\	(8ff\L	.
8g\J)	8gg\J)	.
=66	=66	=66
(8F\L	(2aa-\)	.
8A-\	.	.
8Bn\	.	.
8d\J)	.	.
(8F\L	4dd\)	.
8A-\	.	.
8B\	(8ee-\L	.
8d\J)	8ff\J)	.
=67	=67	=67
(8E-\L	(2gg\)	.
8G\	.	.
8c\	.	.
8e-\J)	.	.
(8A-\L	4cc\)	.
8c\	.	.
8e-\	(8cc\L	.
8f#\J)	8dd\J)	.
=68	=68	=68
(8G\L	4ee-'\	.
8c\	.	.
8e-\	(8ee-\L	.
8g\J)	8ff\J)	.
(8G\L	4dd'\	.
8Bn\	.	.
8d\	(8dd\L	.
8g\J)	8ee-\J)	.
=69	=69	=69
8r	4cc'\	.
(8C\L	.	.
8E-\	4r	.
8G\J	.	.
4c\)	4r	.
4r	(8ff\L	.
.	8gg\J)	.
=70	=70	=70
8r	2a-\ (2aa-\	>
(8FF/L	.	.
8BBn/	.	.
8D/J	.	.
8F\L	4dd'\)	.
8A-\	.	.
8G\	(8ee-\L	.
8F\J)	8ff\J)	.
=71	=71	=71
8r	2g\ (2gg\	>
(8EE-/L	.	.
8GG/	.	.
8C/J	.	.
8E-\L	4cc'\)	.
8G\	.	.
8A-\	(8cc\L	.
8F#\J)	8dd\J)	.
=72	=72	=72
8GG\L	4ee-'\	.
8G\	.	.
8c\	(8ee-\L	.
8G\J	8ff\J)	.
8GG\L	4dd'\	.
8G\	.	.
8Bn\	(8dd\L	.
8G\J	8ee-\J)	.
=73	=73	=73
8C\L	4cc\	<
8c\	.	.
8Bn\	2bb-\	.
8c\J	.	.
8En\L	.	.
8c\	.	.
8G\	[4bb-\	.
8c\J	.	.
=74	=74	=74
8F\L	(8bb-\L]	.
8c\	8aa-\	.
8A-\	8gg\	.
8c\J	8ff\J	.
8G\L	8ee-\L	.
8f\	8dd\	.
8Bn\	8cc\	.
8f\J	8bn\J)	.
=75	=75	=75
8A-\L	4cc'\	.
8e-\	.	.
8c\	2cc\ 2ccc\	.
8e-\J	.	.
8G\L	.	.
8en\	.	.
8c\	[4bb-\	.
8e\J	.	.
=76	=76	=76
8F\L	(8bb-\L]	.
8f\	8aa-\	.
8c\	8gg\	.
8f\J	8ff\J	.
8G\L	8ee-\L	.
8g\	8dd\	.
8G\	8cc\	.
8g\J	8bn\J)	.
=77	=77	=77
4c'\	4cc'\	.
4G\ (4Bn\	(4dd\	f
4C'\ 4c'\)	4ee-'\)	.
4GG'\ 4G'\	4bn'\ 4dd'\ 4bbn'\	.
=78	=78	=78
4CC'/ 4C'/	4cc'\ 4ee-'\ 4ccc'\	.
4r	4r	.
8r	2r	p
(8AA-\L	.	.
8C\	.	.
8E-\J)	.	.
=79	=79	=79
2A-\	(2c/	.
2D-\	2f/	.
=80	=80	=80
2G\	2B-/	.
2C\	2e-/)	.
=81	=81	=81
4F\	(2A-/	.
2BB-/	.	.
.	4d-/	.
4C/	4c/	.
=82	=82	=82
4D-\	4B-/	.
4Dn\	4A-/	.
4E-\	4G/)	.
4EE-/	4r	.
=83	=83	=83
(2AA-/	4r	.
.	2cc\	.
2D-/	.	.
.	[4f/	.
=84	=84	=84
2GG/	4f/]	.
.	2b-/	.
2C/)	.	.
.	[4e-/	.
=85	=85	=85
2FF/	(4e-/]	.
.	4a-/	.
4GG/	4g/	.
4AA-/	4f/	.
=86	=86	=86
4AAn/	4e-/	.
4BB-/	4dn/	.
4EE-/	4f/	.
4r	4e-/)	.
=87	=87	=87
4r	(2cc\	.
2A-\ 2c\	.	.
.	2f\ 2ff\	.
[4D-\ [4F\	.	.
=88	=88	=88
4D-\] 4F\]	2b-\	.
2G\ 2B-\	.	.
.	[2e-\ 2ee-\)	.
[4C\ [4E-\	.	.
=89	=89	=89
*	*^	*
4C\] 4E-\]	(2a-/	4e-\]	.
4F\ 4A-\	.	4c\	.
4BB-\	4dd-/	4f\	.
4C\	4cc/	4e-\	.
=90	=90	=90	=90
4D-\	4b-/	4d-\	.
4Dn\	4a-/	4c\	.
4E-\	4g/	4B-\	.
4r	4e-/)	4r	.
*	*v	*v	*
=91	=91	=91
2A-\ (2c\	4r	.
.	2cc\ 2ccc\	.
2d-\ 2f\	.	.
.	[4ff\	.
=92	=92	=92
2G\ 2B-\	4ff\]	.
.	2b-\ 2bb-\	.
2c\ 2e-\)	.	.
.	[4ee-\	.
=93	=93	=93
*	*^	*
2F\	4ee-/]	2cc\	.
.	(4aa-/	.	.
4G\	4gg/	4b-\	.
4A-\	4ff/	4a-\	.
=94	=94	=94	=94
4An\	4ee-/	4g\	.
4B-\	4ddn/	4f\	.
4E-\	4ff/	4a-\	.
(4e-\	4ee-/)	4g\	.
*	*v	*v	*
=95	=95	=95
4dn\	2r	.
4e-\	.	.
4g-\	4r	.
4An\	4ee-\	.
=96	=96	=96
4B-\)	4cc\	.
4r	4dd-\	.
4r	4ff\	.
4E-\ (4d-\	4g/	.
=97	=97	=97
4A-\ 4c\)	4b-\	.
4r	4a-\	.
4r	4cc\	.
4BB-\ (4A-\	4dn/	.
=98	=98	=98
4E-\ 4G\)	4e-/	.
4r	4bb-\	.
*clefG2	*	*
8r	4eee-\	.
8ee-'\L	.	.
8ff'\	4ddd-\	.
8gg'\J	.	.
=99	=99	=99
8aa-\L	(2ccc\	.
8gg'\	.	.
8ff'\	.	.
8ee-'\J	.	.
8dd-'\L	2fff\	.
8cc'\	.	.
8b-'\	.	.
8a-'\J	.	.
*clefF4	*	*
=100	=100	=100
8g'\L	2bb-\	.
8f'\	.	.
8e-'\	.	.
8d-'\J	.	.
8c'\L	2eee-\)	.
8B-'\	.	.
8A-'\	.	.
8G'\J	.	.
=101	=101	=101
8F'/L	2aa-\	<
8E-'/	.	.
8D-'/	.	.
8C'/J	.	.
8BB-'/L	4dd-'\ 4ddd-'\	.
8AAn'/	.	.
8BB-'/	4cc'\ 4ccc'\	.
8C'/J	.	.
=102	=102	=102
8D-'\L	4b-'\ 4bb-'\	.
8C'\	.	.
8D-'\	4a-'\ 4aa-'\	.
8Dn'\J	.	.
8E-'\L	4g'\ 4gg'\	.
8F\	.	.
8F#'\	4dd-'\	.
8G'\J	.	.
=103	=103	=103
2AA-/	8ccc\L	f
.	8bb-\	.
.	8aa-\	.
.	8gg\J	.
2D-/	8ff\L	.
.	8ee-\	.
.	8dd-\	.
.	8cc\J	.
=104	=104	=104
2GG/	8b-/L	.
.	8a-/	.
.	8g/	.
.	8f/J	.
2C/	8en/L	.
.	8d-/	.
.	8c/	.
.	8B-/J	.
*	*clefF4	*clefF4
=105	=105	=105
2FF/	8A-\L	.
.	8G\	.
.	8F\	.
.	8En\J	.
[2FFF/ [2FF/	8F\L	.
.	8G\	.
.	8A-\	.
.	8G\J	.
=106	=106	=106
2FFF/] 2FF/]	8F\L	>
.	8E-\	.
.	8D\	.
.	8C\J	.
2FFF#/ 2FF#/	8BBn/L	.
.	8C/	.
.	8D/	.
.	8C/J	.
=107	=107	=107
4GGG'/	16r	.
.	(16GG/LL	<
.	16BBn/	.
.	16D/JJ)	.
8r	4G'\	.
(16DD/LL	.	.
16BBBn/JJ)	.	.
4GGG'/	16r	.
.	(16GG/LL	.
.	16C/	.
.	16E-/JJ	.
8r	4G'\)	.
(16EE-/LL	.	.
16CC/JJ)	.	.
=108	=108	=108
4GGG'/	16r	.
.	(16GG\LL	.
.	16D\	.
.	16F\JJ)	.
8r	4G'\	.
(16FF/LL	.	.
16DD/JJ)	.	.
4GGG'/	16r	.
.	(16GG\LL	.
.	16C\	.
.	16E-\JJ	.
8r	4G'\)	.
(16EE-/LL	.	.
16CC/JJ)	.	.
*	*clefG2	*clefG2
=109	=109	=109
4GGG'/	16r	.
.	(16G/LL	.
.	16Bn/	.
.	16d/JJ	.
8r	4g/)	.
(16D/LL	.	.
16BB-/JJ)	.	.
4GG'/	16r	.
.	(16G/LL	.
.	16c/	.
.	16e-/JJ	.
8r	4g'/)	.
(16E-/LL	.	.
16C/JJ)	.	.
=110	=110	=110
4GG'/	16r	.
.	(16G/LL	.
.	16d/	.
.	16f/JJ	.
8r	4g'/)	.
(16F\LL	.	.
16D\JJ)	.	.
4GG'/	16r	.
.	(16G/LL	.
.	16c/	.
.	16e-/JJ	.
8r	4g'/)	.
(16E-\LL	.	.
16C\JJ)	.	.
=111	=111	=111
4GG'/	16r	.
.	(16g\LL	ff
.	16bn\	.
.	16dd\JJ	.
8r	4gg'\)	.
(16d\LL	.	.
16Bn\JJ)	.	.
4G'\	16r	.
.	(16g\LL	.
.	16cc\	.
.	16ee-\JJ	.
8r	4gg'\)	.
(16e-\LL	.	.
16c\JJ)	.	.
=112	=112	=112
4G'\	16r	.
.	(16g\LL	.
.	16dd\	.
.	16ff\JJ	.
8r	4gg'\)	.
(16f\LL	.	.
16d\JJ)	.	.
4G'\	16r	.
.	(16g\LL	.
.	16cc\	.
.	16ee-\JJ	.
8r	4gg'\)	.
(16e-\LL	.	.
16c\JJ)	.	.
=113	=113	=113
4G'\	12r	.
.	(12g/L	.
.	12f#/J	.
4r	12g\L	.
.	12bn\	.
.	12dd\J	.
4r	12gg\L	.
.	12dd\	.
.	12b\J)	.
(12G\L	4g'/	.
12D\	.	.
12BBn\J)	.	.
=114	=114	=114
4GG'/	12r	.
.	(12bn\L	.
.	12a#\J	.
4r	12b\L	.
.	12dd\	.
.	12gg\J	.
4r	12bbn\L	.
.	12gg\	.
.	12dd\J)	.
(12G\L	4b\	.
12D\	.	.
12BBn\J)	.	.
=115	=115	=115
4GG'/	12r	.
.	(12dd\L	.
.	12cc#\J	.
4r	12dd\L	.
.	12gg\	.
.	12bbn\J	.
4r	12ddd\L	.
.	12bb\	.
.	12gg\J)	.
(12GG/L	4dd'\	.
12DD/	.	.
12BBBn/J)	.	.
=116	=116	=116
4GGG'/	12r	.
.	(12ff\L	.
.	12een\J	.
4r	12ff\L	.
.	12bbn\	.
.	12ddd\J	.
2r	12fff\L	.
.	12ddd\	.
.	12bb\J	.
.	12fff\L	.
.	12ddd\	.
.	12bb\J)	.
=117	=117	=117
[1GGG [1GG	2.fff\	ff
.	12eee-\L	.
.	12ddd\	.
.	12ccc\J	.
=118	=118	=118
1GGG] 1GG]	12bbn\L	.
.	12aa-\	.
.	12gg\J	.
.	12ff\L	.
.	12ee-\	.
.	12dd\J	.
.	12cc\L	.
.	12bn\	.
.	12a-\J	.
.	20g/LL	.
.	20f/	.
.	20e-/	.
.	20d/	.
.	20c/JJ	.
=119	=119	=119
[1GG [1D [1F	[1Bn	.
=120	=120	=120
2GG;/] 2D;/] 2F;/]	2B/]	.
2r	8r	.
.	8g'\L	p
.	8cc'\	.
.	8dd'\J	.
=121	=121	=121
(8C\L	(4.ee-\	.
8E-\	.	.
8G\	.	.
8c\J)	8ff\	.
(8C\L	4.dd\	.
8F\	.	.
8G\	.	.
8Bn\J)	8ee-\)	.
=122	=122	=122
8C\L	2cc\	.
8E-\	.	.
8G\	.	.
8c\J	.	.
8e-\L	(8cc\L)	.
8g\	8bn\	.
8e-\	8cc\	.
8d\J	8dd\J	.
=123	=123	=123
8c\L	8ee-\L	.
8g\	8dd\	.
8c\ 8e-\	8ee-\	.
8g\J	8ff\J)	.
8Bn\ 8d\L	4gg'\	.
8g\	.	.
8A-\ 8c\	4gg'\	.
8g\J	.	.
=124	=124	=124
(8G\L	2.gg\	.
8Bn\	.	.
8d\	.	.
8g\J)	.	.
(8G\L	.	.
8B\	.	.
8d\	(8ff\L	.
8g\J)	8gg\J)	.
=125	=125	=125
(8F\L	(2aa-\)	.
8A-\	.	.
8Bn\	.	.
8d\J)	.	.
(8F\L	4dd\)	.
8A-\	.	.
8B\	(8ee-\L	.
8d\J)	8ff\J)	.
=126	=126	=126
(8E-\L	(2gg\)	.
8G\	.	.
8c\	.	.
8e-\J)	.	.
(8A-\L	4cc\)	.
8c\	.	.
8e-\	(8cc\L	.
8f#\J)	8dd\J)	.
=127	=127	=127
(8G\L	4ee-'\	.
8c\	.	.
8e-\	(8ee-\L	.
8g\J)	8ff\J)	.
(8G\L	4dd'\	.
8Bn\	.	.
8d\	(8dd\L	.
8g\J)	8ee-\J)	.
=128	=128	=128
8r	4cc\	.
(8CC/L	.	.
8EE-/	4r	.
8GG/J	.	.
8C/L	2r	.
8E-/	.	.
8F/	.	.
8G/J)	.	.
=129	=129	=129
(2A-\	8r	.
.	(8Bn/L	.
.	8d/	.
.	8f/J)	.
4D'\)	8r	.
.	(8ff\L	.
(8E-\L	8dd\	.
8F\J)	8bn\J)	.
=130	=130	=130
(2G\	8r	.
.	(8c/L	.
.	8e-/	.
.	8g/J)	.
4C'\)	8r	.
.	(8gg\L	.
(8B-\L	8ee-\	.
8c\J)	8cc\J)	.
=131	=131	=131
(2d-\	8r	.
.	(8en/L	.
.	8g/	.
.	8b-/J)	.
4G'\)	8r	.
.	(8bb-\L	.
(8A-\L	8gg\	.
8B-\J)	8een\J)	.
=132	=132	=132
(2c\	8r	.
.	(8f\L	.
.	8a-\	.
.	8cc\J	.
4F'\)	8ff\L	.
.	8aa-\	.
4r	8ccc\	.
.	[8fff\J)	.
=133	=133	=133
*^	*	*
4c/	2A-\	(4fff\]	.
4f/	.	4eee-\	.
4c/	2A-\	4ddd\	.
4f#/	.	4ccc\	.
*v	*v	*	*
=134	=134	=134
4G\	4bbn'\)	p
*clefG2	*	*
(4g/	2gg\	.
4f/	.	.
4g/	[4gg\	.
=135	=135	=135
4en/	8gg\L]	.
.	8aan\	.
4g/	8bbn\	.
.	8ccc\J	.
4Bn/	8ddd\L	.
.	8eeen\	.
4g/)	8fff\	.
.	8ddd\J	.
=136	=136	=136
*^	*	*
(4c/	4r	(8fff\L	.
.	.	8eeen\	.
4g/)	4r	8ddd\	.
.	.	8ccc\J	.
2dd/	(4f\	8ccc\L	.
.	.	8bbn\	.
.	4g\	8aan\	.
.	.	8bb\J)	.
=137	=137	=137	=137
2cc/	4en\	8ddd\L	.
.	.	8ccc\	.
.	4g\	8bbn\	.
.	.	8aan\J	.
4Bn/	4r	4ff\ 4gg\	.
4g/)	4r	4ff\ 4gg\	.
*v	*v	*	*
=138	=138	=138
*	*^	*
(4c/	[1gg	(8ff\L	.
.	.	8een\	.
4g/	.	8dd\	.
.	.	(8cc\J)	.
4f/	.	8cc\L	.
.	.	8bn\	.
4g/	.	8an\	.
.	.	8b\J)	.
*	*v	*v	*
=139	=139	=139
4en/	8cc\ 8gg\L]	.
.	8aan\	.
4g/	8bbn\	.
.	8ccc\J	.
4Bn/	8ddd\L	.
.	8eeen\	.
4g/	8fff\	.
.	8ddd\J	.
=140	=140	=140
*^	*	*
4c/	2r	8fff\L	.
.	.	8eeen\	.
4g/	.	8ddd\	.
.	.	8ccc\J	<
4cc/	2en\	8bbn\L	.
.	.	8ccc\	.
4g/)	.	8eee\	.
.	.	8ccc\J	.
=141	=141	=141	=141
(4cc/	2f\	(8bbn\L	.
.	.	8aan\	.
4an/	.	8ccc\	.
.	.	8aa\J	.
4cc#/	2f\	8gg\L	.
.	.	8ff\	.
4a/)	.	8aa\	.
.	.	8ff\J)	.
*v	*v	*	*
=142	=142	=142
(4f/ 4dd/	(8een\L	.
.	8dd\	.
4an/	8ff\	.
.	8dd\J	.
4f/	8aan\L	.
.	8ff\	.
4f#/)	8dd\	.
.	8cc\J)	.
=143	=143	=143
8g/	(12bn/L	.
.	12g/	.
8r	.	.
.	12an/J	.
4r	12b/L	.
.	12a/	.
.	12g/J)	.
12r	2cc\	.
(12d/L	.	.
12en/J	.	.
12f#/L	.	.
12e/	.	.
12d/J)	.	.
=144	=144	=144
8g'/	(12bn/L	.
.	12g/	.
8r	.	.
.	12an/J	.
4r	12b/L	.
.	12a/	.
.	12g/J)	.
12r	2cc\	.
(12d/L	.	.
12en/J	.	.
12f#/L	.	.
12e/	.	.
12d/J)	.	.
=145	=145	=145
8g'/	12bn/L	.
.	12g/	.
8r	.	.
.	12an/J	.
4r	12b/L	.
.	12a/	.
.	12g/J	.
4g'/	12dd\L	.
.	12b\	.
.	12cc\J	.
4r	12dd\L	.
.	12cc\	.
.	12b\J	.
*clefF4	*	*
=146	=146	=146
4G\ 4Bn\ 4dn\ 4f\	12ff\L	.
.	12een\	.
.	12dd\J	.
4r	12cc\L	.
.	12bn\	.
.	12an\J	.
2r	12g/L	.
.	12a/	.
.	12g/J	.
.	12f/L	.
.	12en/	.
.	12d/J	.
=147	=147	=147
4C/	12en/L	.
.	12c/	.
.	12d/J	.
4r	12e/L	.
.	12d/	.
.	12c/J	.
12r	2f/	.
12G\L	.	.
12An\J	.	.
12Bn\L	.	.
12A\	.	.
12G\J	.	.
=148	=148	=148
4c'\	12en\L	.
.	12cc\	.
.	12dd\J	.
4r	12een\L	.
.	12dd\	.
.	12cc\J	.
12r	2ff\	.
12G\L	.	.
12An\J	.	.
12Bn\L	.	.
12A\	.	.
12G\J	.	.
=149	=149	=149
4c'\	12een\L	.
.	12cc\	.
.	12dd\J	.
4r	12ee\L	.
.	12dd\	.
.	12cc\J	.
4c\	12gg\L	.
.	12ee\	.
.	12ff\J	.
4r	12gg\L	.
.	12ff\	.
.	12ee\J	.
=150	=150	=150
4En\ 4G\ 4B-\ 4c\	(12bb-\L	.
.	12aan\	.
.	12gg\J	.
4r	12ff\L	.
.	12een\	.
.	12dd\J	.
2r	12cc\L	.
.	12bn\	.
.	12cc\J	.
.	12cc#\L	.
.	12dd\	.
.	12b-\J)	f
=151	=151	=151
(12FF\L	4r	.
12AAn\	.	.
12C\J	.	.
4F\)	(12An/L	.
.	12c/	.
.	12f/J	.
2r	12an\L	.
.	12cc\	.
.	12ff\J)	.
.	8aan'\L	.
.	8aa'\J	.
=152	=152	=152
4G\ 4c\ 4en\	(8aan\L	.
.	8gg\)	.
4r	8ff'\	.
.	8een'\J	.
4G\ 4d\ 4f\	(8ee\L	.
.	8dd\)	.
4r	8cc'\	.
.	8bn'\J	.
=153	=153	=153
4c\ 4en\	4cc\	.
4r	4r	.
2r	4r	.
.	4g/	p
*clefG2	*	*
=154	=154	=154
(4f'/ 4g'/	4bn'\ (4dd'\	p
4f'/ 4g'/	4b'\ 4dd'\	.
4f'/ 4g'/	4b'\ 4dd'\	.
4f'/) 4g'/	4b'\ 4dd'\)	.
=155	=155	=155
2.en/ 2.g/	2.cc\ 2.gg\	.
4e/ 4g/	4cc\ 4gg\	.
=156	=156	=156
2an'/	2cc'\ 2ee-'\ 2ff#'\	.
2a'/	2cc'\ 2dd'\ 2ff#'\	.
=157	=157	=157
4g/	4bn\ 4dd\ 4gg\	.
4r	4r	.
2r	4r	.
.	4G/	.
*clefF4	*	*
=158	=158	=158
4F'\ (4G'\	(4Bn'/ 4d'/	.
4F'\ 4G'\	4B'/ 4d'/	.
4F'\ 4G'\	4B'/ 4d'/	.
4F'\ 4G'\)	4B'/) 4d'/	.
=159	=159	=159
*	*^	*
2.E-\ 2.G\	2.g/	4r	.
.	.	(4Bn\	.
.	.	[2c\)	.
4E-\	4g/	.	.
*	*v	*v	*
=160	=160	=160
(4A-'\	(4c/] 4f/	.
4A-'\	4c'/ 4f'/	.
4A-'\ 4B-'\	4d'/ 4f'/	.
4A-'\ 4B-'\)	[4d'/) 4f'/	.
=161	=161	=161
*	*^	*
2.G\ 2.B-\	2.b-/	4d\]	.
.	.	(4d\	.
.	.	[2e-\)	.
4G\	4b-/	.	.
*	*v	*v	*
=162	=162	=162
4c\	4e-/] 4an/	.
4c'\ 4e-'\	(4f#/ 4a/	.
4c'\ 4e-'\	4f#'/ 4a'/	.
4c'\ 4e-'\	(4f#'/) 4a'/	.
=163	=163	=163
*	*^	*
2.Bn\ 2.d\	2.dd/	4f#\)	<
.	.	(4f#\	.
.	.	4g\)	.
4c\ 4e-\	(4an/	[4f#\	.
=164	=164	=164	=164
2.Bn\ 2.d\	2.dd/)	4f#\]	>
.	.	(4f#\	.
.	.	4g\)	.
*clefG2	*	*	*
4f/ 4a-/	(4dd/	[4bn\	.
=165	=165	=165	=165
2.e-/ 2.g/	2.gg/)	4b\]	<
.	.	(4bn\	.
.	.	4cc\)	.
4f/ 4a-/	(4dd/	[4b\	.
=166	=166	=166	=166
2.e-/ 2.g/	2.gg/)	4b\]	>
.	.	(4bn\	.
.	.	4cc\)	.
4f/ 4a-/	(4dd/	[4b\	.
=167	=167	=167	=167
1r	(1aa-)	4b\]	.
.	.	4a#\	.
.	.	4bn\	.
.	.	4dd\	.
=168	=168	=168	=168
1r	1gg	4r	.
.	.	4a#\	.
.	.	4bn\	.
.	.	4dd\	.
=169	=169	=169	=169
1r	1ff#	4r	.
.	.	4a#\	.
.	.	4bn\	.
.	.	[4dd\	.
=170	=170	=170	=170
2r	1ffn)	4dd\]	.
.	.	4a#\	.
4r	.	2bn\	.
*clefF4	*	*	*
4GG'/	.	.	.
*	*v	*v	*
=171	=171	=171
(8C\L	4.g\ 4.cc\ (4.ee-\	p
8E-\	.	.
8G\	.	.
8c\J)	8ff\	.
(8C\L	4.dd\	.
8F\	.	.
8G\	.	.
8Bn\J)	8ee-\)	.
=172	=172	=172
(8C\L	2cc\	.
8E-\	.	.
8G\	.	.
8c\J)	.	.
*clefG2	*	*
8e-/L	(8cc\L)	.
8g/	8bn\	.
8e-/	8cc\	.
8d/J	8dd\J)	.
=173	=173	=173
8c/L	(8ee-\L)	.
8g/	8dd\	.
8c/ 8e-/	8ee-\	.
8g/J	8ff\J)	.
8Bn/ 8d/L	4gg'\	.
8g/	.	.
8A-/ 8c/	4gg'\	.
8g/J	.	.
*clefF4	*	*
=174	=174	=174
(8G\L	2.gg\	.
8Bn\	.	.
8d\	.	.
8g\J)	.	.
(8G\L	.	.
8B\	.	.
8d\	(8ff\L	.
8g\J)	8gg\J)	.
=175	=175	=175
(8F\L	(2aa-\)	.
8A-\	.	.
8Bn\	.	.
8d\J)	.	.
(8F\L	4dd\)	.
8A-\	.	.
8B\	(8ee-\L	.
8d\J)	8ff\J)	.
=176	=176	=176
(8E-\L	(2gg\)	.
8G\	.	.
8c\	.	.
8e-\J)	.	.
(8A-\L	4cc\)	.
8c\	.	.
8e-\	(8cc\L	.
8f#\J)	8dd\J)	.
=177	=177	=177
(8G\L	4ee-'\	.
8c\	.	.
8e-\	(8ee-\L	.
8g\J)	8ff\J)	.
(8G\L	4dd'\	.
8Bn\	.	.
8d\	(8dd\L	.
8g\J)	8ee-\J)	.
=178	=178	=178
4c\	(8cc\L	.
.	8bn\	.
4r	8cc\	.
.	8dd\J	.
2r	8ee-\L	.
.	8een\	.
.	8ff\	.
.	8gg\J)	.
=179	=179	=179
8FF/L	(8aa-\L	<
8AA-/	8gg\	.
8BBn/	8bb-\	.
8D/J	8aa-\J	.
8FF/L	8gg\L	.
8AA-/	8ff\	.
8BB/	8ee-\	.
8D/J	8dd\J	.
=180	=180	=180
8EE-/L	8gg\L	.
8GG/	8ff#\	.
8C/	8aa-\	.
8E-/J	8gg\J	.
8AA-/L	8ffn\L	.
8C/	8ee-\	.
8E-/	8dd\	.
8F#/J	8cc\J	.
=181	=181	=181
8GG\L	8ee-\L	.
8C\	8dd\	.
8E-\	8ff\	.
8G\J	8ee-\J	.
8GG\L	8dd\L	.
8G\	8cc#\	.
8GG\	8ee-\	.
8G\J	8dd\J	.
=182	=182	=182
8C\L	4ccn\)	p
8c\	.	.
8Bn\	4r	.
8c\J	.	.
8B-\L	12r	.
.	(12ccc\L	<
8c\	.	.
.	12ddd\J	.
8G\	12eeen\L	.
.	12ddd\	.
8c\J	.	.
.	12ccc\J)	.
=183	=183	=183
(8A-\L	4fff'\	.
8c\	.	.
8F\	4r	.
8c\J	.	.
8B-\L	12r	.
.	(12ccc\L	.
8c\	.	.
.	12ddd\J	.
8G\	12eeen\L	.
.	12ddd\	.
8c\J)	.	.
.	12ccc\J)	.
=184	=184	=184
(8A-\L	4fff'\	.
8c\	.	.
8F\	4r	.
8c\J	.	.
8B-\L	12r	.
.	(12ccc\L	.
8c\	.	.
.	12ddd\J	.
8G\	12eeen\L	.
.	12ddd\	.
8c\J)	.	.
.	12ccc\J)	.
=185	=185	=185
4A-'\	4fff'\	.
4AA-'\ 4C'\ 4E-'\ 4A-'\	4cc'\ 4ee-'\ 4ff#'\ 4ccc'\	ff
4GG'\ 4C'\ 4E-'\ 4G'\	4cc'\ 4ee-'\ 4gg'\ 4ccc'\	.
4GG'\ 4BBn'\ 4D'\ 4G'\	4bn'\ 4dd'\ 4gg'\ 4bbn'\	.
=186	=186	=186
(8CC/L	4cc'\ 4ee-'\ 4gg'\ 4ccc'\	.
8C/	.	.
8BBn/	4r	.
8C/J	.	.
8BB-/L	12r	.
.	(12cc\L	.
8C/	.	.
.	12dd\J	.
8GG/	12een\L	.
.	12dd\	.
8C/J)	.	.
.	12cc\J)	.
=187	=187	=187
(8AA-/L	4ff'\	.
8C/	.	.
8FF/	4r	.
8C/J	.	.
8BB-/L	12r	.
.	(12cc\L	.
8C/	.	.
.	12dd\J	.
8GG/	12een\L	.
.	12dd\	.
8C/J)	.	.
.	12cc\J)	.
=188	=188	=188
(8AA-/L	4ff'\	.
8C/	.	.
8FF/	4r	.
8C/J	.	.
8BB-/L	12r	.
.	(12c/L	.
8C/	.	.
.	12d/J	.
8GG/	12en/L	.
.	12d/	.
8C/J)	.	.
.	12c/J)	.
=189	=189	=189
4AA-/	12f'/L	p
.	12c/	.
.	12d/J	.
4AA-'\ 4A-'\	12e-/L	.
.	12d/	.
.	12c/J	.
4r	12f#'/L	<
.	12c/	.
.	12d/J	.
4AA-'\ 4C'\ 4E-'\ 4A-'\	12e-/L	.
.	12d/	.
.	12c/J	.
=190	=190	=190
4r	12g'/L	.
.	12c/	.
.	12d/J	.
4GG'/ 4C'/ 4E-'/ 4G'/	12e-/L	.
.	12d/	.
.	12c/J	.
4r	12an'/L	.
.	12c/	.
.	12d/J	.
4FF#'/ 4C'/ 4E-'/ 4F#'/	12e-/L	.
.	12d/	.
.	12c/J	.
=191	=191	=191
4r	12bn'/L	.
.	12Bn/	.
.	12c/J	.
4FFn'/ 4BBn'/ 4D'/ 4Fn'/	12d/L	.
.	12c/	.
.	12B/J	.
4r	12cc'/L	.
.	12c/	.
.	12d/J	.
4EE-'/ 4GG'/ 4C'/ 4E-'/	12e-/L	.
.	12d/	.
.	12c/J	.
=192	=192	=192
4r	12dd'/L	.
.	12d/	.
.	12e-/J	.
4FF'/ 4AA-'/ 4D'/ 4F'/	12f/L	.
.	12e-/	.
.	12d/J	.
4r	12bn'/L	.
.	12Bn/	.
.	12c/J	.
4GG'/ 4BBn'/ 4D'/ 4G'/	12d/L	.
.	12c/	.
.	12B/J	.
=193	=193	=193
4CC/ 4C/	4c/ 4cc/	f
2.E-\ 2.G\ 2.c\	4r	f
.	(4gg\	.
.	16ff\LL	.
.	16ee-\	.
.	16dd\	.
.	16cc\JJ	.
=194	=194	=194
4F\ 4A-\ 4c\ 4d\	4dd'\)	.
2.G\ 2.Bn\ 2.d\	4r	.
.	(4ff\	.
.	16ee-\LL	.
.	16dd\	.
.	16cc\	.
.	16bn\JJ	.
=195	=195	=195
4E-\ 4G\ 4c\	4cc'\)	.
2.E-\ 2.G\ 2.c\	4r	.
.	(4gg\	.
.	16ff\LL	.
.	16ee-\	.
.	16dd\	.
.	16cc\JJ	.
=196	=196	=196
4F\ 4A-\ 4c\ 4d\	4dd'\)	.
2.G\ 2.Bn\ 2.d\	4r	.
.	(4ff\	.
.	16ee-\LL	.
.	16dd\	.
.	16cc\	.
.	16bn\JJ	.
=197	=197	=197
4E-\ 4G\ 4c\	4cc'\)	.
2.E-\ 2.G\ 2.c\	4r	.
.	(4gg\	.
.	16ff\LL	.
.	16ee-\	.
.	16dd\	.
.	16cc\JJ	.
=198	=198	=198
4F\ 4A-\ 4d-\	4dd-'\)	.
2F\ 2A-\ 2d-\	4r	.
.	[2fff\	ff
4F'\ 4A-'\ 4d-'\	.	.
=199	=199	=199
[1G [1B- [1d- [1e-	2.fff\]	.
.	12eee-\L	.
.	12ddd-\	.
.	12ccc\J	.
=200	=200	=200
2G\] 2B-\] 2d-\] 2e-\]	12bb-\L	.
.	12aa-\	.
.	12gg\J	.
.	12ff\L	.
.	12ee-\	.
.	12dd-\J	.
4r	(24cc/LL	.
.	24b-/	.
.	24a-/	.
.	24g/	.
.	24f/	.
.	24e-/JJ)	.
28d-/LL	4r	.
28c/	.	.
28B-/	.	.
28A-/	.	.
28G/	.	.
28F/	.	.
28E-/JJ	.	.
=201	=201	=201
[1GGG [1EE- [1GG [1D-	1r	.
=202	=202	=202
*^	*	*
2.D-/]	2.GGG\] 2.EE-\] 2.GG\]	2.r	.
4r	4r	(8A-/L	p
.	.	8B-/J)	.
=203	=203	=203	=203
(2E-/	[1AA-	(4.c/	.
.	.	8d-/	.
2D-/	.	4.B-/	.
.	.	8c/)	.
*v	*v	*	*
=204	=204	=204
4AA-/] 4C/)	4A-/	>
4r	4r	.
2r	4r	.
.	8a-/L	.
.	8b-/J	.
=205	=205	=205
*^	*	*
(2e-/	[1A-	(4.cc\	.
.	.	8dd-\	.
2d-/	.	4.b-\	.
.	.	8cc\)	.
*v	*v	*	*
=206	=206	=206
4A-\] 4c\)	4a-/	.
4r	4r	.
2r	4r	.
.	4cc\	pp
*clefG2	*	*
=207	=207	=207
*	*^	*
4a-/	4ff#/	4ee-\	.
4r	4r	4r	.
2r	4r	4r	.
.	4r	(4cc\	.
=208	=208	=208	=208
4g/	4gg/)	4ee-\	.
4r	4r	4r	.
2r	4r	4r	.
.	4r	12eee-\L	ff
.	.	12ddd\	.
.	.	12ccc\J	.
*clefF4	*	*	*
*	*v	*v	*
=209	=209	=209
4GG/ 4BBn/ 4D/ 4G/	12fff\L	.
.	12eee-\	.
.	12ddd\J	.
4r	12ccc\L	.
.	12bbn\	.
.	12aa-\J	.
2r	12gg\L	.
.	12ffn\	.
.	12ee-\J	.
.	12dd\L	.
.	12cc\	.
.	12bn\J	.
=210	=210	=210
4CC'/ 4EE-'/ 4GG'/ 4C'/	4cc'\	ff
4r	4r	.
8r;	8r;	.
=	=	=
*-	*-	*-
!!!ENC: Craig Stuart Sapp
!!!END: 2005/08/23/
